X:1
T:Title
%%score ( 1 2 3 ) ( 4 5 )
L:1/8
Q:1/4=105
M:6/8
K:D
V:1 treble nm="Grand Piano, Soprano"
V:2 treble 
V:3 treble 
V:4 bass nm="Choir Pad, Guthrie, George Oliver 1896"
V:5 bass 
V:1
 d B2 d B2 | d [DFB]2- [DFB] B2 | d c2 B [FA]2 | F G2- G2- G/ z/ | A [E-B]2 [Ee-]/e/ B2 | %5
w: By~George~Edgar~Oliver,~1896 * * *|||||
 e [EGB]2- [EGB] B2 | d d2 B B2 | c c2- c2- c/ z/ | [GA] G2 e B2 | c [Fd]2- [Fd] [FA]2 | z A2 z3 | %11
w: ||||||
 E D2- D3- | [DF] B,2- [B,E-]/E/ c2 | B [DA]2- [DA] A2 | d c2 A B2 | c [Fd]2- [Fd]3- | [Fd]3 z3 |] %17
w: ||||||
V:2
 z [DF]2- [DF]/ z/ [DF]2- | [DF]3 z [DF]2- | [DF] [DF]2- [DF]/ z/ D2- | D C2- C3- | C G2- G3- | %5
 G3 z [EG]2- | [EG] [D^G]2- [DG]/ z/ [DG]2- | [DG] C2- C3- | C C2- C/ z/ G2- | G3 z3 | %10
 [DF] D2- [DG-]/G/ D2 | z F2- F2- F/ z/ | z F2 z D2- | D3 z D2- | D G2- G/ z/ G2- | G3 z3 | x6 |] %17
V:3
 x6 | x6 | x6 | x6 | z3 z E2- | E3 z3 | x6 | x6 | x6 | x6 | x6 | x6 | x6 | x6 | x6 | x6 | x6 |] %17
V:4
 z6 | z6 | z6 | z A,2- A,3- | A,3 z3 | z6 | z6 | z6 | z6 | z6 | %10
 [=C,A,] [B,,G,]2- [B,,G,] [^A,,G,]2- | [A,,G,] [=A,,A,]2- [A,,A,]3- | %12
 [A,,A,] [G,,G,]2- [G,,G,] [^G,,=F,]2- | [G,,F,] [A,,^F,]2- [A,,F,] [A,,F,]2- | %14
 [A,,F,] [E,A,]2- [E,A,] [A,,A,]2- | [A,,A,] [D,A,]2- [D,A,]3- | [D,A,]3 z3 |] %17
V:5
 z [D,F,A,]2- [D,F,A,] [A,,F,A,]2- | [A,,F,A,] [D,F,A,]2- [D,F,A,] [A,,F,A,]2- | %2
 [A,,F,A,] [D,F,A,]2- [D,F,A,] [A,,F,A,]2- | [A,,F,A,] E,2- E, A,,2- | %4
 A,, [E,A,]2- [E,A,] [A,,A,]2- | [A,,A,] [E,A,]2- [E,A,] [A,,A,]2- | [A,,A,] [E,,E,]2- [E,,E,]3- | %7
 [E,,E,] [A,,E,]2- [A,,E,]3- | [A,,E,] [E,A,]2- [E,A,] [A,,A,]2- | %9
 [A,,A,] [D,A,]2- [D,A,] [D,A,]2 | x6 | x6 | x6 | x6 | x6 | x6 | x6 |] %17

